X:422
%%etbk:tnset id:126,pos:1,rep:3x,ant:
%%etbk:tnset id:262,pos:5,rep:2x,ant:
%%etbk:pldat 2016-06-22T16:23,2016-06-21T16:04,2016-06-18T16:24,2016-03-05T15:17,2016-02-27T15:19,2015-10-28T17:11,2015-10-26T18:10,2015-10-25T14:56,2015-06-23T18:49,2015-06-18T19:17,2015-03-11T17:18,2015-03-09T18:06,2014-11-05T19:08,2014-11-04T16:30,2014-11-02T14:30,2014-08-20T18:25,2014-06-25T16:01,2014-03-06T18:33,2014-03-01T17:58,2014-02-26T16:50,2013-10-30T15:59,2013-10-29T17:21,2013-10-27T15:01,2013-10-26T16:49,2013-10-16T15:21
T: Harvest Home, The
Z: Piano Box Version by Martin Fleischmann
H: Created 2013-02-19 /  Last Modified 2013-02-19
M: 4/4
L: 1/8
R: hornpipe
K: Dmaj
|: "D"!1!D2!2!F!3!A DA!2!F!1!A | !3!de!5!fe !3!dc!1!B!1!A | "A"!3!e!1!A!4!fA !5!gA!4!f!1!A | !5!edcB !1!A!4!GFE |
 "D"!1!D2!2!F!3!A DA!2!F!1!A | !3!de!5!fe !3!dc!1!B!1!A | "A"!3!e!1!A!4!fA !5!gA!3!e!2!c | "D"!3!d2 !5!f2 d4:|
|: "A"!3!e!1!AzA !4!fAzA | !5!g!1!A!4!fA !3!eAzA | !3!e!1!A!4!fA !5!gA!4!f!1!A | !5!edcB !1!A!4!GFE | 
"D"!1!D2!2!F!3!A DA!2!F!1!A | !3!de!5!fe !3!dc!1!B!1!A | "A"!3!e!1!A!4!fA !5!gA!3!e!2!c | "D"!3!d2 !5!f2 d4:|


